public/showcase/resources/images/home/ebay.svg

<svg height="33" viewBox="0 0 84 33" width="84" xmlns="http://www.w3.org/2000/svg" xmlns:xlink="http://www.w3.org/1999/xlink"><mask id="a" fill="#fff"><path d="m0 .03100368v20.36352862h19.5370724v-20.36352862z" fill="none"/></mask><mask id="b" fill="#fff"><path d="m1.1341875.5644375v-.54329687h-1.13360625v.54329687z" fill="none"/></mask><g fill="#fff" fill-rule="evenodd" transform=""><path d="m4.06069602 8.38978427s.27651989-5.49024193 5.83227273-5.49190524c5.53546875-.0016633 5.53546875 5.49190524 5.53546875 5.49190524zm5.92772728-8.35878024c-9.65910512-.00199597-10.0343608 8.38339718-9.98514205 10.56033267 0 0-.47309659 9.8031956 9.74859375 9.8031956 8.7830114 0 9.2155398-6.15124 9.2155398-6.15124l-4.0410086.0093146s-.7869034 3.3884879-5.15782665 3.298004c-5.61928978-.1167641-5.83734375-6.1878327-5.83734375-6.1878327h15.5671449s1.18125-11.32944554-9.5099574-11.33177417z" mask="url(#a)" transform="translate(0 8.25)"/><path d="m30.1384411 24.6240313c-6.3765038.0843278-6.2729216-7.1279832-6.2729216-7.1279832s-.2322845-6.9420046 6.2626874-7.1204657c6.4946618-.1784611 6.2831558 7.2685295 6.2831558 7.2685295s.1035821 6.894938-6.2729216 6.9799194m.9272772-17.13226202c-5.0491639-.02974351-7.2212874 3.15150472-7.2212874 3.15150472v-10.643274h-4.0477665l.0685379 22.4939384s-.0245 2.6203706-.1777023 4.3520312h3.9317793l.1683985-2.5272178s1.8340861 3.1812482 7.193376 3.1812482c5.3596001 0 9.5915816-3.4786833 9.7044675-9.9297566.1122657-6.4514001-4.5700189-10.04873061-9.619803-10.07847412"/><path d="m49.4196803 26.0831549s-4.1681448.0053666-4.4128425-3.5006854c-.2603099-3.7411752 6.4124815-3.5161144 6.4124815-3.5161144l4.7145726-.0046957s.7634059 7.1248021-6.7142116 7.0214955m10.8680187-2.4364261c.0105144-2.9858294.0933547-5.6520121 0-7.532662-.1089669-2.1805074.087301-7.44310726-8.8683797-7.83218411 0 0-8.585448-.82376961-9.4769378 5.90323501h4.390858s.3412386-3.0820924 4.7967758-2.9932085c4.2165745.0838528 4.9847596 2.2610061 4.9627751 4.9382573 0 0-3.6137517.0107332-4.8200348.017106-2.1732851.011404-9.7796237.2649748-10.4895019 5.1421873-.8446532 5.7992575 4.0722411 7.6084649 7.9192202 7.5853215 3.8472978-.0228079 6.0422488-1.235319 7.6726109-3.4091182l.1742834 2.6997238 3.8256318-.022808s-.0987712-1.5096852-.087301-4.4958501"/><path d="m56.4375 8.25h4.6175779l6.7531773 13.8837553 6.767508-13.8837553h4.1742368l-12.217799 24.75h-4.4645124l3.5357524-6.877585z"/><path d="m81.6414116 9.31226568v-.56017245h-.2664116v-.20997876h.2664116v-.29211447h.4815495v.29211447h.5645389v.20997876h-.5645389v.52202574c0 .09485129.095147.132998.2579541.132998.1078333 0 .2040375-.01202824.2991845-.03642839v.19966883c-.1194624.03436641-.2505538.05464259-.4334475.05464259-.3552154 0-.6052406-.07869908-.6052406-.31273432"/><path d="m.00058125.03214063h.1708125v.08060937c.048-.04726562.1130625-.09160937.2274375-.09160937.106875 0 .183375.03729687.2225625.09367187.0594375-.056375.13875-.09367187.251625-.09367187.162 0 .2611875.0735625.2611875.20367187v.339625h-.1708125v-.30232813c0-.08473437-.055125-.13010937-.1509375-.13010937-.0935625 0-.1595625.04640625-.1595625.132v.3004375h-.171v-.30335937c0-.08267188-.0564375-.12907813-.15075-.12907813-.0945 0-.15975.05035938-.15975.132v.3004375h-.1708125z" mask="url(#b)" transform="translate(82.6875 8.25)"/></g></svg>

<?xml version="1.0" encoding="UTF-8"?>
<svg width="84px" height="33px" viewBox="0 0 84 33" version="1.1" xmlns="http://www.w3.org/2000/svg" xmlns:xlink="http://www.w3.org/1999/xlink">
    <!-- Generator: sketchtool 45.2 (43514) - http://www.bohemiancoding.com/sketch -->
    <title>1D76BB13-00F5-4300-8FA1-25135D4BDF92</title>
    <desc>Created with sketchtool.</desc>
    <defs>
        <polygon id="path-1" points="0 0.031003676 0 20.3945323 19.5370724 20.3945323 19.5370724 0.031003676 1.6170629e-20 0.031003676"></polygon>
        <polygon id="path-3" points="1.1341875 0.5644375 1.1341875 0.021140625 0.00058125 0.021140625 0.00058125 0.5644375 1.1341875 0.5644375"></polygon>
    </defs>
    <g id="Page-1" stroke="none" stroke-width="1" fill="none" fill-rule="evenodd">
        <g id="PrimeReact-Showcase---Homepage" transform="translate(-968.000000, -1120.000000)">
            <g id="homepage" transform="translate(301.000000, 70.000000)">
                <g id="brands" transform="translate(0.000000, 1019.000000)">
                    <g transform="translate(109.000000, 27.000000)" id="ebay">
                        <g transform="translate(558.000000, 4.000000)">
                            <g id="Group-3" transform="translate(0.000000, 8.250000)">
                                <mask id="mask-2" fill="white">
                                    <use xlink:href="#path-1"></use>
                                </mask>
                                <g id="Clip-2"></g>
                                <path d="M4.06069602,8.38978427 C4.06069602,8.38978427 4.33721591,2.89954234 9.89296875,2.89787903 C15.4284375,2.89621573 15.4284375,8.38978427 15.4284375,8.38978427 L4.06069602,8.38978427 Z M9.9884233,0.0310040323 C0.329318182,0.0290080645 -0.0459375,8.41440121 0.00328125,10.5913367 C0.00328125,10.5913367 -0.469815341,20.3945323 9.751875,20.3945323 C18.5348864,20.3945323 18.9674148,14.2432923 18.9674148,14.2432923 L14.9264062,14.2526069 C14.9264062,14.2526069 14.1395028,17.6410948 9.76857955,17.5506109 C4.14928977,17.4338468 3.9312358,11.3627782 3.9312358,11.3627782 L19.4983807,11.3627782 C19.4983807,11.3627782 20.6796307,0.0333326613 9.9884233,0.0310040323 L9.9884233,0.0310040323 Z" id="Fill-1" fill="#FFFFFF" mask="url(#mask-2)"></path>
                            </g>
                            <path d="M30.1384411,24.6240313 C23.7619373,24.7083591 23.8655195,17.4960481 23.8655195,17.4960481 C23.8655195,17.4960481 23.633235,10.5540435 30.1282069,10.3755824 C36.6228687,10.1971213 36.4113627,17.6441119 36.4113627,17.6441119 C36.4113627,17.6441119 36.5149448,24.5390499 30.1384411,24.6240313 M31.0657183,7.49176928 C26.0165544,7.46202577 23.8444309,10.643274 23.8444309,10.643274 L23.8444309,0 L19.7966644,0 L19.8652023,22.4939384 C19.8652023,22.4939384 19.8407023,25.114309 19.6875,26.8459696 L23.6192793,26.8459696 L23.7876778,24.3187518 C23.7876778,24.3187518 25.6217639,27.5 30.9810538,27.5 C36.3406539,27.5 40.5726354,24.0213167 40.6855213,17.5702434 C40.797787,11.1188433 36.1155024,7.52151279 31.0657183,7.49176928" id="Fill-4" fill="#FFFFFF"></path>
                            <path d="M49.4196803,26.0831549 C49.4196803,26.0831549 45.2515355,26.0885215 45.0068378,22.5824695 C44.7465279,18.8412943 51.4193193,19.0663551 51.4193193,19.0663551 L56.1338919,19.0616594 C56.1338919,19.0616594 56.8972978,26.1864615 49.4196803,26.0831549 M60.287699,23.6467288 C60.2982134,20.6608994 60.3810537,17.9947167 60.287699,16.1140668 C60.1787321,13.9335594 60.375,8.67095954 51.4193193,8.28188269 C51.4193193,8.28188269 42.8338713,7.45811308 41.9423815,14.1851177 L46.3332395,14.1851177 C46.3332395,14.1851177 46.6744781,11.1030253 51.1300153,11.1919092 C55.3465898,11.275762 56.1147749,13.4529153 56.0927904,16.1301665 C56.0927904,16.1301665 52.4790387,16.1408997 51.2727556,16.1472725 C49.0994705,16.1586765 41.4931319,16.4122473 40.7832537,21.2894598 C39.9386005,27.0887173 44.8554948,28.8979247 48.7024739,28.8747813 C52.5497717,28.8519734 54.7447227,27.6394623 56.3750848,25.4656631 L56.5493682,28.1653869 L60.375,28.1425789 C60.375,28.1425789 60.2762288,26.6328937 60.287699,23.6467288" id="Fill-6" fill="#FFFFFF"></path>
                            <polygon id="Fill-8" fill="#FFFFFF" points="56.4375 8.25 61.0550779 8.25 67.8082552 22.1337553 74.5757632 8.25 78.75 8.25 66.532201 33 62.0676886 33 65.603441 26.122415"></polygon>
                            <path d="M81.6414116,9.31226568 L81.6414116,8.75209323 L81.375,8.75209323 L81.375,8.54211447 L81.6414116,8.54211447 L81.6414116,8.25 L82.1229611,8.25 L82.1229611,8.54211447 L82.6875,8.54211447 L82.6875,8.75209323 L82.1229611,8.75209323 L82.1229611,9.27411897 C82.1229611,9.36897026 82.2181081,9.40711697 82.3809152,9.40711697 C82.4887485,9.40711697 82.5849527,9.39508873 82.6800997,9.37068858 L82.6800997,9.57035741 C82.5606373,9.60472382 82.4295459,9.625 82.2466522,9.625 C81.8914368,9.625 81.6414116,9.54630092 81.6414116,9.31226568" id="Fill-10" fill="#FFFFFF"></path>
                            <g id="Group-14" transform="translate(82.687500, 8.250000)">
                                <mask id="mask-4" fill="white">
                                    <use xlink:href="#path-3"></use>
                                </mask>
                                <g id="Clip-13"></g>
                                <path d="M0.00058125,0.032140625 L0.17139375,0.032140625 L0.17139375,0.11275 C0.21939375,0.065484375 0.28445625,0.021140625 0.39883125,0.021140625 C0.50570625,0.021140625 0.58220625,0.0584375 0.62139375,0.1148125 C0.68083125,0.0584375 0.76014375,0.021140625 0.87301875,0.021140625 C1.03501875,0.021140625 1.13420625,0.094703125 1.13420625,0.2248125 L1.13420625,0.5644375 L0.96339375,0.5644375 L0.96339375,0.262109375 C0.96339375,0.177375 0.90826875,0.132 0.81245625,0.132 C0.71889375,0.132 0.65289375,0.17840625 0.65289375,0.264 L0.65289375,0.5644375 L0.48189375,0.5644375 L0.48189375,0.261078125 C0.48189375,0.17840625 0.42545625,0.132 0.33114375,0.132 C0.23664375,0.132 0.17139375,0.182359375 0.17139375,0.264 L0.17139375,0.5644375 L0.00058125,0.5644375 L0.00058125,0.032140625 Z" id="Fill-12" fill="#FFFFFF" mask="url(#mask-4)"></path>
                            </g>
                        </g>
                    </g>
                </g>
            </g>
        </g>
    </g>
</svg>
